X: 236
T: Galway Lady (jig)
T: Anna Carew's
N: 072179
C: BB 11/06
L: 1/8
M: 6/8
R: jig
Q: 1/4=170
K: D
e | "Bm" fdB BAB |"Bm" FBd fdB |"A" ecA AEA |"A" EAc ecA |
"Bm" fdB BAB |"Bm" FBd fdB |"D" Adf "A7"eag |"Bm" fdA B2 :|
F |"D" Adc def | "Em" edB efg |"D"faf "A7" gfe |"Bm" fdB "A"AFE |
"D" DFA def | "Em" edB efg |1 "Bm" fdB "A"Ace | "D"fdd d2 :|\
[2 "Bm" fdB "A7"cde | "Bm" dBA B2 ||
%%%%%%%%%%%%%%%%%%%%%%
